X: 72
T: SINGLE JIGS: Tonn Clíodhna Set
T: Tonn Clíodhna
C: C: Brendan Begley / Trad.; S: Brendan Begley / Denis Murphy
C: Set Leaders: Alexey, Anton, Sophie
Z: Anton Zille ed. arr., Oleg Naumov arr.; jaychoons at The Session
N: https://thesession.org/members/26966/sets/68391
R: Single Jig
M: 12/8
L: 1/8
Q: 3/8=116
K: Edor
|:"Em"EFG BdB BdB "(A)"BAF|"D"DEF ABA ABA "(Bm)"AFD|
"Em"EFG BdB BdB "(A)"BAF|1 "D"DEF ABA AFD "Em"E2 B,:|2 "D"DEF ABA AFD "Em"E3||
|:"Em"efe efe efg gag|"D"fgf ~d2 A def f/g/af|
"Em"efe efe efg "(D/F#)"gag|"G"EFG BdB "D"AFD "Em"E3:||
|:"Em (Am)"efe efe efe edB|"D (D/B)"ded ded dAF AFD|
"Em (C)"efe efe efe edB|1 "(C)"EFG BdB "D"AFD "Em"E3:|2 "(C)"EFG BdB "D"AFD "Em"E2 B,||
T: Seanchaí Muimhneach / An Seanchaí Muimhneach
K: Edor
|:"Em"B2E EFA B2A Bcd|"Em"B2E EFA "(C)"BAG "D"FED|
"Em"B2E EFA B2A Bcd|"D"AFE DEF A2G FED:||
|:"Em"g2e "(D/F#)"fed "(Em)"e2B "(D/F#)"BAF|"Em (C)"B2E EFA "D"BAG FED|
"Em"gfe "(D/F#)"fed "G"edB "Am"d2B|"D (C)"AFE DEF "D"A2G FED:||
|:"Em (C)"E3 EFE EFE E3|"D"EFE EFA BAG FED|
"Em (C)"~E3 EFE EFE B/c/dB|"D"AFE DEF A2G "(Bm)"FED:||

